X:1
T:Owen, SM
T:Owen, SM
T:Joseph Emerson Sweetser, 1868
T:Public Domain Courtesy of the Cyber Hymnal™
C:Joseph Emerson Sweetser, 1868
Z:Public Domain
Z:Courtesy of the Cyber Hymnal™
%%score ( 1 2 ) ( 3 4 )
L:1/8
Q:1/4=130
M:4/4
K:D
V:1 treble 
V:2 treble 
V:3 bass 
V:4 bass 
V:1
 [DF]4 [DF]2 [DB]2 | [Fc]4 c4 | [DB]8 | [DA]4 [Fd]2 [FA]2 | [DF]4 (D2 E2) | [DF]8 | %6
 [DF]4 [DF]2 [DF]2 | [EA]4 [EA]4 | [FA]2 [FA]2 [GB]4 | [EA]4 [FA]2 [DF]2 | [DE]4 [CA]4 | [DF]8 |] %12
V:2
 x8 | x4 (F2 E2) | x8 | x8 | x4 D4 | x8 | x8 | x8 | x8 | x8 | x8 | x8 |] %12
V:3
 [D,A,]4 [D,A,]2 [B,,B,]2 | [F,B,]4 [F,^A,]4 | [G,B,]8 | [F,D]4 [D,A,]2 [D,D]2 | [B,D]4 [G,B,]4 | %5
 [D,A,]8 | [B,,B,]4 [B,,B,]2 [B,,B,]2 | [A,,C]4 [A,,C]4 | [D,D]2 [D,D]2 [G,,D]4 | %9
 [A,,C]4 [D,D]2 [D,A,]2 | [G,,B,]4 (E,2 A,2) | [D,A,]8 |] %12
V:4
 x8 | x8 | x8 | x8 | x8 | x8 | x8 | x8 | x8 | x8 | x4 A,,4 | x8 |] %12

